X:1
T:Mustafa
O:Greece
M:4/4
K:F
CF2FC2F2|CC2CF2z2|CF2FC2F2|FE^DEF2F2|
|:zBAGF2F2|zGGFGAA2|zFFGA2A2|GBAGF2F2:|
|:zAAAA>AAA|BcBAB>AG2|zGGGG>GGG|GBAGA>GF2:|
CF2FC2F2|CC2CF2z2|CF2FC2F2|FE^DEF2F2|
c_dcBc2_A2|_AGABc2c2|c_dcBc2_A2|_AGABc2c2|
ccBB_AAG2|BB_AAGGF2|ccBB_AAG2|BB_AAGGF2|
|z^AAAA2c2|BdcBG2G2|FGGGG2G2|GBAGA/2B/2A/2G/2F2|
|zAAAA2c2|BdcBG2G2|FGGGG2G2|GBAGA/2B/2A/2G/2F2||
